icons/drag-move-line.svg

<svg viewBox="0 0 24 24" fill="currentColor" xmlns="http://www.w3.org/2000/svg">
    <path d="M12 2L16.2426 6.24264L14.8284 7.65685L12 4.82843L9.17157 7.65685L7.75736 6.24264L12 2ZM2 12L6.24264 7.75736L7.65685 9.17157L4.82843 12L7.65685 14.8284L6.24264 16.2426L2 12ZM22 12L17.7574 16.2426L16.3431 14.8284L19.1716 12L16.3431 9.17157L17.7574 7.75736L22 12ZM12 14C10.8954 14 10 13.1046 10 12C10 10.8954 10.8954 10 12 10C13.1046 10 14 10.8954 14 12C14 13.1046 13.1046 14 12 14ZM12 22L7.75736 17.7574L9.17157 16.3431L12 19.1716L14.8284 16.3431L16.2426 17.7574L12 22Z"/>
</svg>

<svg xmlns="http://www.w3.org/2000/svg" viewBox="0 0 24 24">
    <g>
        <path fill="none" d="M0 0h24v24H0z"/>
        <path d="M12 2l4.243 4.243-1.415 1.414L12 4.828 9.172 7.657 7.757 6.243 12 2zM2 12l4.243-4.243 1.414 1.415L4.828 12l2.829 2.828-1.414 1.415L2 12zm20 0l-4.243 4.243-1.414-1.415L19.172 12l-2.829-2.828 1.414-1.415L22 12zm-10 2a2 2 0 1 1 0-4 2 2 0 0 1 0 4zm0 8l-4.243-4.243 1.415-1.414L12 19.172l2.828-2.829 1.415 1.414L12 22z"/>
    </g>
</svg>
